X:1
T:Title
%%score { ( 1 3 4 ) | ( 2 5 ) }
L:1/8
M:3/4
K:F
V:1 treble nm="Grand Piano"
V:3 treble 
V:4 treble 
V:2 bass 
V:5 bass 
V:1
 z2 z2 z[Q:1/4=94] C | C>F A3 B | [FA]>[EG] [EG]3 [B,C] | [B,EG]>[A,_E^F] [B,=EG]2 [CEA]2 | %4
[M:5/8] F-F- F3 |[M:1/8] C |[M:3/4] C>F A3 c | [_Ec]>[DB] [DB]3 [DB] | [CA]>[DB] [CA]2 [B,G]2 | %9
[M:5/8] [A,F]-[A,F]- [A,F]3 |[M:1/8] [Fc] |[M:3/4] [Ec]>[EG] [EG]3 [Ec] | c>A A3 A | d>d c2 A2 | %14
[M:5/8] [EG]-[EG]- [EG]3 |[M:1/8] C |[M:3/4] C>F A3 c | [_Ec]>[DB] [DB]3 [DB] | %18
 [CA]>[DB] [CA]2 [B,G]2 |[M:5/8] [A,F]-[A,F]- [A,F]3 |[M:4/4] C>F A2- AA B2- | %21
 BA[CFA][B,EG]- [B,EG]3 z | [E,C]>[G,CE][K:treble] [B,EG]2- [B,EG][B,EG] [CFA]2- | %23
[M:3/4] [CFA][B,EG] [B,EG] [A,CF]3- |[M:1/4] [A,CF] z | [A,CF]>[CFA] | %26
[M:4/4] [FAc]3 [FAc] [FBd]3 [FAc] | [_EAc] [DFB]3- [DFB] z [DF]>[^CFG] | %28
[M:19/16] (3:2:12[CFA]-[CFA]3/16 z z3/16 z2 z3/8 C2- C3/8 z2 z3/8 z4 z3/4 |[M:3/4] F6 |] %30
V:2
 z2 z2 z [F,A,] | [F,A,]>[F,A,C] [F,CF]3 [F,DF] | [C,C]>[C,C] [C,C]3 C, | C,>C, C,2 C,2 | %4
[M:5/8] [F,A,]-[F,A,]- [F,A,]3 |[M:1/8] [F,A,] |[M:3/4] [F,A,]>[F,A,C] [F,CF]3 [F,A,_E] | %7
 [B,,B,]>[B,,B,] [B,,B,]3 [B,,F,] | [C,F,]>[C,F,] [C,E,]2 [C,E,]2 | %9
[M:5/8] [F,,F,]-[F,,F,]- [F,,F,]3 |[M:1/8] [F,A,] |[M:3/4] [C,B,]>[C,B,] [C,B,]3 [C,B,] | %12
 [F,A,F]>[F,CF] [F,CF]3 [F,CF] | [B,F]>[B,F] [A,CF]2[K:bass] [F,CF]2 |[M:5/8] [C,C]-[C,C]- [C,C]3 | %15
[M:1/8] [C,B,] |[M:3/4] [F,A,]>[A,C] [F,CF]3 [F,A,_E] | [B,,B,]>[B,,B,] [B,,B,]3 [B,,F,] | %18
 [C,F,]>[C,F,] [C,E,]2 [C,E,]2 |[M:5/8] [F,,F,]-[F,,F,]- [F,,F,]3 | %20
[M:4/4] [F,A,]>[F,A,C] [F,CF]2- [F,CF][F,CF] [F,DF]2- | [F,DF][F,CF]C,C,- C,3 z | %22
 C,>C, C,2- C,C, C,2- |[M:3/4] C,C, F, F,3- |[M:1/4] F, z | F,>F, |[M:4/4] F,3 F, F,3 F, | %27
 B,, B,,3- B,, z B,,>B,, | %28
[M:19/16] z/ C,-<C,.C,3/2 z/ z [C,B,C]/-[C,B,C]/-[C,B,C]-<[C,B,C][F,A,C] |[M:3/4] [F,A,C]6 |] %30
V:3
 x6 | x6 | x6 | x6 |[M:5/8] x5 |[M:1/8] x |[M:3/4] x6 | x6 | x6 |[M:5/8] x5 |[M:1/8] x | %11
[M:3/4] x6 | x6 | x6 |[M:5/8] x5 |[M:1/8] x |[M:3/4] x6 | x6 | x6 |[M:5/8] x5 |[M:4/4] x8 | x8 | %22
 x2[K:treble] x6 |[M:3/4] x6 |[M:1/4] x2 | x2 |[M:4/4] x8 | x8 | %28
[M:19/16] z/ C-<C.[CFA]3/2 z/ z G/-G/-G-<GF |[M:3/4] x6 |] %30
V:4
 x6 | x6 | x6 | x6 |[M:5/8] x5 |[M:1/8] x |[M:3/4] x6 | x6 | x6 |[M:5/8] x5 |[M:1/8] x | %11
[M:3/4] x6 | x6 | x6 |[M:5/8] x5 |[M:1/8] x |[M:3/4] x6 | x6 | x6 |[M:5/8] x5 |[M:4/4] x8 | x8 | %22
 x2[K:treble] x6 |[M:3/4] x6 |[M:1/4] x2 | x2 |[M:4/4] x8 | x8 | %28
[M:19/16] z/ A,/-A,-<A, z/ z/ z/ z/ z/ z/ z/ z/ z/ z/ z/ z |[M:3/4] x6 |] %30
V:5
 x6 | x6 | x6 | x6 |[M:5/8] x5 |[M:1/8] x |[M:3/4] x6 | x6 | x6 |[M:5/8] x5 |[M:1/8] x | %11
[M:3/4] x6 | x6 | x4[K:bass] x2 |[M:5/8] x5 |[M:1/8] x |[M:3/4] x6 | x6 | x6 |[M:5/8] x5 | %20
[M:4/4] x8 | x8 | x8 |[M:3/4] x6 |[M:1/4] x2 | x2 |[M:4/4] x8 | x8 | %28
[M:19/16] (3:2:12C,-C,3/16 z z3/16 z2 z3/8 [C,A,]2- [C,A,]3/8 z2 z3/8 z4 z3/4 |[M:3/4] x6 |] %30

